X: 17444
T: Highland, The
R: reel
M: 4/4
K: Amixolydian
gf|:"A"eAAA efgf|"D"eAAA a2gf|"A"eAAA efge|"G"dBGB d2gf|
"A"eAAA efgf|"D"eAAA g2fg|"A"afge fdec|1 "G"dBGB d2gf:|2 "G"dBGB defg||
|:"A"aAAA eAAA|"Em"aAAA g2fg|"A"aAAA efge|"G"dBGB defg|
"A"aAAA eAAA|"Em"aAAA g2fg|"A"afge fdec|1 "G"dBGB "D"defg:|2 "G"dBGB "D"d2gf||

